client/public/assets/icons/custom/custom54.svg

<?xml version="1.0"?><svg xmlns="http://www.w3.org/2000/svg" width="100" height="100" viewBox="0 0 100 100"><g fill="#fff"><path d="m27.2 49.1c6.5-1.2 12.2-3.8 18.4-6.7 2-0.9 5.7-2.7 7.5-3.5 0.6-0.3 1-0.9 0.8-1.6-0.5-2.9-2.9-5.3-5.9-5.3h-2v-3.8c0-1.1-1-2.1-2-2.1v-4.1c0-1.1-0.9-2.1-2-2.1h-4c-1.1 0-2 0.9-2 2.1v4.1c-1 0-2 0.9-2 2.1v3.8h-2c-3.3 0-6 3.1-6 6.5v9.6c0 0.6 0.6 1.1 1.2 1z m44.8 20.1s7.3-11.4 8-27.5c0-1.2-0.9-2.2-2.1-2.2-23.8 0.9-34.9 15.5-56 16.4-1.1 0-1.9 1-1.9 2v7.6c0 3.3 2.5 5.9 5.6 6.1 10.5 0.7 33 2.2 45.9 4.3 1.3 0.2 2.5-1 2.3-2.3-0.3-1.5-0.8-3.3-1.8-4.4z m-1-18.2c-1.7 0-3-1.3-3-3s1.3-3 3-3 3 1.3 3 3-1.3 3-3 3z"></path></g></svg>

<?xml version="1.0" encoding="utf-8"?>
<!-- Generator: Adobe Illustrator 16.0.0, SVG Export Plug-In . SVG Version: 6.00 Build 0)  -->
<!DOCTYPE svg PUBLIC "-//W3C//DTD SVG 1.1//EN" "http://www.w3.org/Graphics/SVG/1.1/DTD/svg11.dtd">
<svg version="1.1" id="Layer_1" xmlns="http://www.w3.org/2000/svg" xmlns:xlink="http://www.w3.org/1999/xlink" x="0px" y="0px"
	 width="100px" height="100px" viewBox="0 0 100 100" enable-background="new 0 0 100 100" xml:space="preserve">
<g>
	<path fill="#FFFFFF" d="M27.2,49.1c6.5-1.2,12.2-3.8,18.4-6.7c2-0.9,5.7-2.7,7.5-3.5c0.601-0.3,1-0.9,0.801-1.6
		C53.4,34.4,51,32,48,32h-2v-3.8c0-1.1-1-2.1-2-2.1V22c0-1.1-0.9-2.1-2-2.1h-4c-1.1,0-2,0.9-2,2.1v4.1c-1,0-2,0.9-2,2.1V32h-2
		c-3.3,0-6,3.1-6,6.5v9.6C26,48.7,26.6,49.2,27.2,49.1z"/>
	<path fill="#FFFFFF" d="M72,69.2c0,0,7.3-11.4,8-27.5c0-1.2-0.9-2.2-2.1-2.2C54.1,40.4,43,55,21.9,55.9c-1.1,0-1.9,1-1.9,2v7.6
		c0,3.3,2.5,5.9,5.6,6.1c10.5,0.7,33,2.2,45.9,4.301c1.3,0.199,2.5-1,2.3-2.301C73.5,72.1,73,70.3,72,69.2z M71,51c-1.7,0-3-1.3-3-3
		s1.3-3,3-3s3,1.3,3,3S72.7,51,71,51z"/>
</g>
</svg>
